icons/sugar_alt_fill.svg

<svg width="48" height="48" viewBox="0 0 48 48" fill="none" xmlns="http://www.w3.org/2000/svg">
<path fill-rule="evenodd" clip-rule="evenodd" d="M43.9932 17.8832C44.0577 18.4317 43.6654 18.9286 43.1168 18.9932C34.6047 19.9946 28.2063 20.9673 22.8836 27.6245C21.4833 29.3759 20.4192 30.6576 19.5377 31.5833C18.6581 32.507 17.9057 33.1363 17.1164 33.5249C16.3019 33.9259 15.529 34.0311 14.6928 34.0477C14.2857 34.0558 13.8457 34.0429 13.3802 34.0292L13.3663 34.0288C12.8959 34.015 12.3827 34 11.7949 34C8.89806 34 6.93756 32.2066 5.76149 30.5878C5.16676 29.7691 4.74229 28.9569 4.46669 28.3523C4.32826 28.0486 4.22577 27.7937 4.15691 27.6118C4.12245 27.5208 4.09631 27.4477 4.07822 27.3957C4.06918 27.3697 4.06214 27.3489 4.05707 27.3337L4.05093 27.3151L4.04897 27.3091L4.04826 27.3069C4.04826 27.3069 4.04773 27.3052 5.00001 27L4.04773 27.3052C3.95024 27.0011 4.00391 26.6686 4.19217 26.4106C4.38042 26.1526 4.68061 26 5.00001 26H21.6275C27.4528 18.9832 34.5419 17.9882 42.8832 17.0068C43.4317 16.9423 43.9286 17.3347 43.9932 17.8832ZM20.0064 28H6.51745C6.73835 28.4313 7.0244 28.9234 7.37956 29.4122C8.38297 30.7934 9.8199 32 11.7949 32C12.4122 32 12.95 32.0158 13.4175 32.0295L13.436 32.03C13.9148 32.0441 14.3038 32.055 14.653 32.0481C15.3308 32.0346 15.7798 31.9537 16.233 31.7306C16.7113 31.4951 17.2722 31.0623 18.0893 30.2041C18.6245 29.6421 19.2461 28.9232 20.0064 28Z" fill="black"/>
<path d="M8.00001 31.5L5.50001 27.5L21.5 27L17.5 32.5L13 33L8.00001 31.5Z" fill="black"/>
<path d="M5.00001 22H7.00001V24H5.00001V22Z" fill="black"/>
<path d="M13 22H15V24H13V22Z" fill="black"/>
<path d="M10 21.5859L11.4142 23.0002L10 24.4144L8.58579 23.0002L10 21.5859Z" fill="black"/>
<path d="M18 21.5859L19.4142 23.0002L18 24.4144L16.5858 23.0002L18 21.5859Z" fill="black"/>
<path d="M11 18H13V20H11V18Z" fill="black"/>
<path d="M8.00001 17.5859L9.41422 19.0002L8.00001 20.4144L6.58579 19.0002L8.00001 17.5859Z" fill="black"/>
<path d="M12 13.5859L13.4142 15.0002L12 16.4144L10.5858 15.0002L12 13.5859Z" fill="black"/>
<path d="M16 17.5859L17.4142 19.0002L16 20.4144L14.5858 19.0002L16 17.5859Z" fill="black"/>
</svg>

<svg
  xmlns="http://www.w3.org/2000/svg"
  width="24"
  height="24"
  viewBox="0 0 24 24"
  fill="none"
  stroke="currentColor"
  stroke-width="2"
  stroke-linecap="round"
  stroke-linejoin="round"
>
  <path
    fill-rule="evenodd"
    d="M43.993 17.883a1 1 0 0 1-.876 1.11c-8.512 1.002-14.91 1.974-20.233 8.632-1.4 1.75-2.465 3.033-3.346 3.958-.88.924-1.632 1.553-2.422 1.942-.814.4-1.587.506-2.423.523a27 27 0 0 1-1.313-.019h-.014c-.47-.014-.983-.029-1.571-.029-2.897 0-4.857-1.793-6.034-3.412a13 13 0 0 1-1.704-3.254l-.006-.019-.002-.006v-.002S4.047 27.305 5 27l-.952.305A1 1 0 0 1 5 26h16.628c5.825-7.017 12.914-8.012 21.255-8.993a1 1 0 0 1 1.11.876M20.006 28H6.517c.221.431.507.923.863 1.412C8.383 30.793 9.82 32 11.795 32c.617 0 1.155.016 1.623.03h.018c.479.014.868.025 1.217.018.678-.013 1.127-.094 1.58-.317.478-.236 1.04-.669 1.856-1.527.536-.562 1.157-1.28 1.917-2.204"
    clip-rule="evenodd"
  />
  <path d="m8 31.5-2.5-4 16-.5-4 5.5-4.5.5z" />
  <path d="M5 22h2v2H5z" />
  <path d="M13 22h2v2h-2z" />
  <path d="M10 21.586 11.414 23 10 24.414 8.586 23z" />
  <path d="M18 21.586 19.414 23 18 24.414 16.586 23z" />
  <path d="M11 18h2v2h-2z" />
  <path d="M8 17.586 9.414 19 8 20.414 6.586 19z" />
  <path d="M12 13.586 13.414 15 12 16.414 10.586 15z" />
  <path d="M16 17.586 17.414 19 16 20.414 14.586 19z" />
</svg>
